; generated by Slic3r 1.2.9 on 2017-09-06 at 17:41:42

; external perimeters extrusion width = 0.50mm
; perimeters extrusion width = 0.50mm
; infill extrusion width = 0.50mm
; solid infill extrusion width = 0.50mm
; top infill extrusion width = 0.50mm
; support material extrusion width = 0.50mm

M107
M190 S80 ; set bed temperature
M117 Drukuje...
G28 X0 Y0 Z0; home
G92 E0
M106 S0 ; no fan

G21 ; set units to millimeters
G90 ; use absolute coordinates
M82 ; use absolute distances for extrusion
G92 E0
G1 E-2.00000 F2400.00000
G92 E0
G1 Z0.350 F7200.000
G1 X99.619 Y101.117 F7200.000
G1 Z0.300 F7200.000
G1 E2.00000 F2400.00000
G1 X102.161 Y100.028 E2.18469 F1200.000
G1 X112.282 Y98.476 E2.86875
G1 X113.121 Y98.412 E2.92498
G1 X123.906 Y98.412 E3.64543
G1 X124.837 Y98.491 E3.70788
G1 X133.931 Y100.043 E4.32422 F1200.000
G1 X135.892 Y100.780 E4.46417
G1 X137.439 Y102.193 E4.60412
G1 X138.479 Y104.709 E4.78598
G1 X139.782 Y113.768 E5.39741
G1 X139.987 Y115.750 E5.53055
G1 X140.016 Y116.319 E5.56857
G1 X140.016 Y125.882 E6.20744
G1 X139.952 Y126.724 E6.26387
G1 X138.471 Y136.342 E6.91399
G1 X137.766 Y138.315 E7.05393
G1 X136.379 Y139.885 E7.19388
G1 X133.840 Y140.971 E7.37838
G1 X123.731 Y142.524 E8.06165
G1 X122.891 Y142.588 E8.11794
G1 X112.106 Y142.588 E8.83839
G1 X111.176 Y142.509 E8.90076
G1 X102.070 Y140.957 E9.51789
G1 X100.109 Y140.220 E9.65784
G1 X98.562 Y138.808 E9.79779
G1 X97.520 Y136.284 E9.98020
G1 X96.256 Y127.448 E10.57653
G1 X96.017 Y125.313 E10.71999
G1 X95.984 Y124.705 E10.76069
G1 X95.984 Y115.142 E11.39956
G1 X96.048 Y114.302 E11.45586
G1 X97.529 Y104.660 E12.10754
G1 X98.233 Y102.687 E12.24749
G1 X99.580 Y101.162 E12.38343
G1 E10.38343 F2400.00000
G92 E0
G1 Z0.650 F7200.000
G1 X123.836 Y126.336 F7200.000
G1 Z0.300 F7200.000
G1 E2.00000 F2400.00000
G1 X112.164 Y126.336 E2.77970 F1200.000
G1 X112.164 Y114.664 E3.55940
G1 X123.836 Y114.664 E4.33911
G1 X123.836 Y126.276 E5.11480
G1 X123.300 Y125.800 F7200.000
G1 X112.700 Y125.800 E5.82294 F1200.000
G1 X112.700 Y115.200 E6.53107
G1 X123.300 Y115.200 E7.23921
G1 X123.300 Y125.740 E7.94334
G1 X123.300 Y126.200 F7200.000
G1 E5.94334 F2400.00000
G92 E0
G1 Z0.650 F7200.000
G1 X132.164 Y134.664 F7200.000
G1 Z0.300 F7200.000
G1 E2.00000 F2400.00000
G1 X103.836 Y134.664 E3.89251 F1200.000
G1 X103.836 Y106.336 E5.78503
G1 X132.164 Y106.336 E7.67754
G1 X132.164 Y134.604 E9.56605
G1 X132.700 Y135.200 F7200.000
G1 X103.300 Y135.200 E11.53013 F1200.000
G1 X103.300 Y105.800 E13.49421
G1 X132.700 Y105.800 E15.45829
G1 X132.700 Y135.140 E17.41836
G1 X132.354 Y135.000 F7200.000
G1 E15.41836 F2400.00000
G92 E0
G1 Z0.650 F7200.000
G1 X131.843 Y122.918 F7200.000
G1 Z0.300 F7200.000
G1 E2.00000 F2400.00000
G1 X124.157 Y115.233 E2.73007 F1200.000
G1 X124.157 Y115.995 E2.78123
G1 X131.843 Y123.680 E3.51130
G1 X131.843 Y124.442 E3.56246
G1 X124.157 Y116.756 E4.29253
G1 X124.157 Y117.518 E4.34369
G1 X131.843 Y125.203 E5.07376
G1 X131.843 Y125.965 E5.12491
G1 X124.157 Y118.279 E5.85498
G1 X124.157 Y119.041 E5.90614
G1 X131.843 Y126.727 E6.63621
G1 X131.843 Y127.488 E6.68737
G1 X124.157 Y119.803 E7.41744
G1 X124.157 Y120.564 E7.46860
G1 X131.843 Y128.250 E8.19867
G1 X131.843 Y129.011 E8.24983
G1 X124.157 Y121.326 E8.97990
G1 X124.157 Y122.088 E9.03106
G1 X131.843 Y129.773 E9.76113
G1 X131.843 Y130.535 E9.81228
G1 X124.157 Y122.849 E10.54235
G1 X124.157 Y123.611 E10.59351
G1 X131.843 Y131.296 E11.32358
G1 X131.843 Y132.058 E11.37474
G1 X124.157 Y124.372 E12.10481
G1 X124.157 Y125.134 E12.15597
G1 X131.843 Y132.820 E12.88604
G1 X131.843 Y133.581 E12.93720
G1 X124.157 Y125.896 E13.66727
G1 X124.157 Y126.657 E13.71843
G1 X131.823 Y134.323 E14.44660
G1 X131.081 Y134.343 E14.49643
G1 X123.396 Y126.657 E15.22650
G1 X122.634 Y126.657 E15.27766
G1 X130.319 Y134.343 E16.00773
G1 X129.558 Y134.343 E16.05889
G1 X121.872 Y126.657 E16.78896
G1 X121.111 Y126.657 E16.84012
G1 X128.796 Y134.343 E17.57019
G1 X128.035 Y134.343 E17.62134
G1 X120.349 Y126.657 E18.35141
G1 X119.588 Y126.657 E18.40257
G1 X127.273 Y134.343 E19.13264
G1 X126.511 Y134.343 E19.18380
G1 X118.826 Y126.657 E19.91387
G1 X118.064 Y126.657 E19.96503
G1 X125.750 Y134.343 E20.69510
G1 X124.988 Y134.343 E20.74626
G1 X117.303 Y126.657 E21.47633
G1 X116.541 Y126.657 E21.52749
G1 X124.227 Y134.343 E22.25756
G1 X123.465 Y134.343 E22.30872
G1 X115.779 Y126.657 E23.03879
G1 X115.018 Y126.657 E23.08994
G1 X122.703 Y134.343 E23.82001
G1 X121.942 Y134.343 E23.87117
G1 X114.256 Y126.657 E24.60124
G1 X113.495 Y126.657 E24.65240
G1 X121.180 Y134.343 E25.38247
G1 X120.418 Y134.343 E25.43363
G1 X112.733 Y126.657 E26.16370
G1 X111.971 Y126.657 E26.21486
G1 X119.657 Y134.343 E26.94493
G1 X118.895 Y134.343 E26.99609
G1 X104.157 Y119.605 E28.39609
G1 X104.157 Y118.843 E28.44725
G1 X111.843 Y126.529 E29.17732
G1 X111.843 Y125.767 E29.22848
G1 X104.157 Y118.082 E29.95855
G1 X104.157 Y117.320 E30.00971
G1 X111.843 Y125.005 E30.73978
G1 X111.843 Y124.244 E30.79094
G1 X104.157 Y116.558 E31.52101
G1 X104.157 Y115.797 E31.57216
G1 X111.843 Y123.482 E32.30223
G1 X111.843 Y122.721 E32.35339
G1 X104.157 Y115.035 E33.08346
G1 X104.157 Y114.273 E33.13462
G1 X111.843 Y121.959 E33.86469
G1 X111.843 Y121.197 E33.91585
G1 X104.157 Y113.512 E34.64592
G1 X104.157 Y112.750 E34.69708
G1 X111.843 Y120.436 E35.42715
G1 X111.843 Y119.674 E35.47831
G1 X104.157 Y111.989 E36.20838
G1 X104.157 Y111.227 E36.25953
G1 X111.843 Y118.912 E36.98960
G1 X111.843 Y118.151 E37.04076
G1 X104.157 Y110.465 E37.77083
G1 X104.157 Y109.704 E37.82199
G1 X111.843 Y117.389 E38.55206
G1 X111.843 Y116.628 E38.60322
G1 X104.157 Y108.942 E39.33329
G1 X104.157 Y108.181 E39.38445
G1 X111.843 Y115.866 E40.11452
G1 X111.843 Y115.104 E40.16568
G1 X104.157 Y107.419 E40.89575
G1 X104.177 Y106.677 E40.94558
G1 X111.843 Y114.343 E41.67375
G1 X112.604 Y114.343 E41.72491
G1 X104.919 Y106.657 E42.45498
G1 X105.680 Y106.657 E42.50614
G1 X113.366 Y114.343 E43.23621
G1 X114.128 Y114.343 E43.28737
G1 X106.442 Y106.657 E44.01744
G1 X107.204 Y106.657 E44.06859
G1 X114.889 Y114.343 E44.79866
G1 X115.651 Y114.343 E44.84982
G1 X107.965 Y106.657 E45.57989
G1 X108.727 Y106.657 E45.63105
G1 X116.412 Y114.343 E46.36112
G1 X117.174 Y114.343 E46.41228
G1 X109.489 Y106.657 E47.14235
G1 X110.250 Y106.657 E47.19351
G1 X117.936 Y114.343 E47.92358
G1 X118.697 Y114.343 E47.97474
G1 X111.012 Y106.657 E48.70481
G1 X111.773 Y106.657 E48.75596
G1 X119.459 Y114.343 E49.48603
G1 X120.221 Y114.343 E49.53719
G1 X112.535 Y106.657 E50.26726
G1 X113.297 Y106.657 E50.31842
G1 X120.982 Y114.343 E51.04849
G1 X121.744 Y114.343 E51.09965
G1 X114.058 Y106.657 E51.82972
G1 X114.820 Y106.657 E51.88088
G1 X122.505 Y114.343 E52.61095
G1 X123.267 Y114.343 E52.66211
G1 X115.582 Y106.657 E53.39218
G1 X116.343 Y106.657 E53.44333
G1 X131.843 Y122.157 E54.91569
G1 X131.843 Y121.395 E54.96685
G1 X117.105 Y106.657 E56.36686
G1 X117.866 Y106.657 E56.41802
G1 X131.843 Y120.634 E57.74568
G1 X131.843 Y119.872 E57.79684
G1 X118.628 Y106.657 E59.05216
G1 X119.390 Y106.657 E59.10331
G1 X131.843 Y119.110 E60.28628
G1 X131.843 Y118.349 E60.33744
G1 X120.151 Y106.657 E61.44805
G1 X120.913 Y106.657 E61.49921
G1 X131.843 Y117.587 E62.53748
G1 X131.843 Y116.826 E62.58864
G1 X121.674 Y106.657 E63.55456
G1 X122.436 Y106.657 E63.60571
G1 X131.843 Y116.064 E64.49929
G1 X131.843 Y115.302 E64.55044
G1 X123.198 Y106.657 E65.37167
G1 X123.959 Y106.657 E65.42282
G1 X131.843 Y114.541 E66.17170
G1 X131.843 Y113.779 E66.22285
G1 X124.721 Y106.657 E66.89938
G1 X125.483 Y106.657 E66.95054
G1 X131.843 Y113.017 E67.55471
G1 X131.843 Y112.256 E67.60587
G1 X126.244 Y106.657 E68.13770
G1 X127.006 Y106.657 E68.18886
G1 X131.843 Y111.494 E68.64833
G1 X131.843 Y110.733 E68.69949
G1 X127.767 Y106.657 E69.08662
G1 X128.529 Y106.657 E69.13778
G1 X131.843 Y109.971 E69.45256
G1 X131.843 Y109.209 E69.50372
G1 X129.291 Y106.657 E69.74615
G1 X130.052 Y106.657 E69.79731
G1 X131.843 Y108.448 E69.96739
G1 X131.843 Y107.686 E70.01855
G1 X130.814 Y106.657 E70.11629
G1 X131.576 Y106.657 E70.16745
G1 X131.843 Y106.924 E70.19283
G1 E68.19283 F2400.00000
G92 E0
G1 Z0.650 F7200.000
G1 X118.134 Y134.343 F7200.000
G1 Z0.300 F7200.000
G1 E2.00000 F2400.00000
G1 X104.157 Y120.366 E3.32766 F1200.000
G1 X104.157 Y121.128 E3.37882
G1 X117.372 Y134.343 E4.63412
G1 X116.610 Y134.343 E4.68528
G1 X104.157 Y121.890 E5.86824
G1 X104.157 Y122.651 E5.91940
G1 X115.849 Y134.343 E7.03001
G1 X115.087 Y134.343 E7.08117
G1 X104.157 Y123.413 E8.11943
G1 X104.157 Y124.175 E8.17059
G1 X114.325 Y134.343 E9.13651
G1 X113.564 Y134.343 E9.18766
G1 X104.157 Y124.936 E10.08123
G1 X104.157 Y125.698 E10.13239
G1 X112.802 Y134.343 E10.95360
G1 X112.041 Y134.343 E11.00476
G1 X104.157 Y126.459 E11.75363
G1 X104.157 Y127.221 E11.80479
G1 X111.279 Y134.343 E12.48131
G1 X110.517 Y134.343 E12.53247
G1 X104.157 Y127.983 E13.13664
G1 X104.157 Y128.744 E13.18780
G1 X109.756 Y134.343 E13.71962
G1 X108.994 Y134.343 E13.77078
G1 X104.157 Y129.506 E14.23025
G1 X104.157 Y130.267 E14.28141
G1 X108.233 Y134.343 E14.66853
G1 X107.471 Y134.343 E14.71969
G1 X104.157 Y131.029 E15.03447
G1 X104.157 Y131.791 E15.08562
G1 X106.709 Y134.343 E15.32805
G1 X105.948 Y134.343 E15.37921
G1 X104.157 Y132.552 E15.54929
G1 X104.157 Y133.314 E15.60045
G1 X105.186 Y134.343 E15.69818
G1 X104.424 Y134.343 E15.74934
G1 X104.157 Y134.076 E15.77472
G1 E13.77472 F2400.00000
G92 E0
G1 Z0.650 F7200.000
G1 X101.736 Y126.664 F7200.000
G1 Z0.300 F7200.000
G1 E2.00000 F2400.00000
G1 X102.342 Y125.454 E2.09037 F1200.000
G1 X101.519 Y124.705 E2.16471
G1 X102.342 Y123.064 E2.28736
G1 X101.519 Y122.314 E2.36171
G1 X102.342 Y120.673 E2.48436
G1 X101.519 Y119.923 E2.55870
G1 X102.342 Y118.282 E2.68136
G1 X101.519 Y117.533 E2.75570
G1 X102.342 Y115.891 E2.87836
G1 X101.519 Y115.142 E2.95270
G1 X101.923 Y114.336 E3.01290
G1 E1.01290 F2400.00000
G92 E0
G1 Z0.650 F7200.000
G1 X112.637 Y104.914 F7200.000
G1 Z0.300 F7200.000
G1 E2.00000 F2400.00000
G1 X113.121 Y103.948 E2.07219 F1200.000
G1 X114.319 Y103.948 E2.15224
G1 X113.835 Y104.914 E2.22442
G1 X115.034 Y104.914 E2.30447
G1 X115.518 Y103.948 E2.37666
G1 X116.716 Y103.948 E2.45671
G1 X116.232 Y104.914 E2.52889
G1 X117.430 Y104.914 E2.60894
G1 X117.914 Y103.948 E2.68113
G1 X119.113 Y103.948 E2.76118
G1 X118.628 Y104.914 E2.83336
G1 X119.827 Y104.914 E2.91341
G1 X120.311 Y103.948 E2.98560
G1 X121.509 Y103.948 E3.06565
G1 X121.025 Y104.914 E3.13783
G1 X122.223 Y104.914 E3.21788
G1 X122.707 Y103.948 E3.29007
G1 X123.906 Y103.948 E3.37012
G1 X123.421 Y104.914 E3.44230
G1 E1.44230 F2400.00000
G92 E0
G1 Z0.650 F7200.000
G1 X134.276 Y114.336 F7200.000
G1 Z0.300 F7200.000
G1 E2.00000 F2400.00000
G1 X133.658 Y115.569 E2.09214 F1200.000
G1 X134.481 Y116.319 E2.16648
G1 X133.658 Y117.960 E2.28914
G1 X134.481 Y118.710 E2.36348
G1 X133.658 Y120.351 E2.48614
G1 X134.481 Y121.100 E2.56048
G1 X133.658 Y122.742 E2.68314
G1 X134.481 Y123.491 E2.75748
G1 X133.658 Y125.132 E2.88014
G1 X134.481 Y125.882 E2.95448
G1 X134.089 Y126.664 E3.01290
G1 E1.01290 F2400.00000
G92 E0
G1 Z0.650 F7200.000
G1 X121.785 Y124.914 F7200.000
G1 Z0.300 F7200.000
G1 E2.00000 F2400.00000
G1 X122.342 Y123.803 E2.08303 F1200.000
G1 X121.519 Y123.053 E2.15737
G1 X122.342 Y121.412 E2.28002
G1 X121.519 Y120.662 E2.35437
G1 X122.342 Y119.021 E2.47702
G1 X121.519 Y118.272 E2.55136
G1 X122.342 Y116.630 E2.67402
G1 X121.416 Y116.086 E2.74575
G1 X120.932 Y117.052 E2.81793
G1 X119.734 Y117.052 E2.89798
G1 X120.218 Y116.086 E2.97017
G1 X119.020 Y116.086 E3.05022
G1 X118.536 Y117.052 E3.12240
G1 X117.337 Y117.052 E3.20245
G1 X117.822 Y116.086 E3.27464
G1 X116.623 Y116.086 E3.35469
G1 X116.139 Y117.052 E3.42687
G1 X114.941 Y117.052 E3.50692
G1 X115.425 Y116.086 E3.57911
G1 X114.227 Y116.086 E3.65916
G1 X113.658 Y117.221 E3.74396
G1 X114.481 Y117.971 E3.81830
G1 X113.658 Y119.612 E3.94096
G1 X114.481 Y120.361 E4.01530
G1 X113.658 Y122.003 E4.13796
G1 X114.481 Y122.752 E4.21230
G1 X113.658 Y124.394 E4.33496
G1 X114.596 Y124.914 E4.40658
G1 X115.080 Y123.948 E4.47877
G1 X116.278 Y123.948 E4.55882
G1 X115.794 Y124.914 E4.63100
G1 X116.992 Y124.914 E4.71105
G1 X117.476 Y123.948 E4.78324
G1 X118.675 Y123.948 E4.86329
G1 X118.190 Y124.914 E4.93547
G1 X119.389 Y124.914 E5.01552
G1 X119.873 Y123.948 E5.08771
G1 X121.071 Y123.948 E5.16776
G1 X120.587 Y124.914 E5.23994
G1 E3.23994 F2400.00000
G92 E0
G1 Z0.650 F7200.000
G1 X122.891 Y137.052 F7200.000
G1 Z0.300 F7200.000
G1 E2.00000 F2400.00000
G1 X123.375 Y136.086 E2.07218 F1200.000
G1 X122.177 Y136.086 E2.15224
G1 X121.692 Y137.052 E2.22442
G1 X120.494 Y137.052 E2.30447
G1 X120.978 Y136.086 E2.37666
G1 X119.780 Y136.086 E2.45671
G1 X119.296 Y137.052 E2.52889
G1 X118.098 Y137.052 E2.60894
G1 X118.582 Y136.086 E2.68113
G1 X117.384 Y136.086 E2.76118
G1 X116.899 Y137.052 E2.83336
G1 X115.701 Y137.052 E2.91341
G1 X116.185 Y136.086 E2.98560
G1 X114.987 Y136.086 E3.06565
G1 X114.503 Y137.052 E3.13783
G1 X113.305 Y137.052 E3.21788
G1 X113.789 Y136.086 E3.29007
G1 X112.591 Y136.086 E3.37012
G1 X112.106 Y137.052 E3.44230
M140 S65 ; wait for bed temperature to be reached
G1 E1.44230 F2400.00000
G92 E0
G1 Z0.650 F7200.000
G1 X112.500 Y136.250 F7200.000
G1 Z0.450 F7200.000
G1 E2.00000 F2400.00000
G1 X112.000 Y136.250 E2.01459 F3000.000
G1 X112.000 Y136.889 E2.03322
G1 X124.000 Y136.889 E2.38331
G1 X124.000 Y136.250 E2.40194
G1 X112.500 Y136.250 E2.73744
G1 E0.73744 F2400.00000
G92 E0
G1 Z0.800 F7200.000
G1 X122.250 Y124.750 F7200.000
G1 Z0.450 F7200.000
G1 E2.00000 F2400.00000
G1 X122.250 Y116.250 E2.24798 F3000.000
G1 X113.750 Y116.250 E2.49596
G1 X113.750 Y124.750 E2.74393
G1 X122.250 Y124.750 E2.99191
G1 E0.99191 F2400.00000
G92 E0
G1 Z0.800 F7200.000
G1 X114.389 Y116.889 F7200.000
G1 Z0.450 F7200.000
G1 E2.00000 F2400.00000
G1 X121.611 Y116.889 E2.21071 F3000.000
G1 X121.611 Y124.111 E2.42142
G1 X114.389 Y124.111 E2.63214
G1 X114.389 Y116.889 E2.84285
G1 E0.84285 F2400.00000
G92 E0
G1 Z0.800 F7200.000
G1 X102.250 Y115.000 F7200.000
G1 Z0.450 F7200.000
G1 E2.00000 F2400.00000
G1 X102.250 Y114.500 E2.01459 F3000.000
G1 X101.611 Y114.500 E2.03322
G1 X101.611 Y126.500 E2.38331
G1 X102.250 Y126.500 E2.40194
G1 X102.250 Y115.000 E2.73744
G1 E0.73744 F2400.00000
G92 E0
G1 Z0.800 F7200.000
G1 X124.000 Y104.750 F7200.000
G1 Z0.450 F7200.000
G1 E2.00000 F2400.00000
G1 X124.000 Y104.111 E2.01863 F3000.000
G1 X112.000 Y104.111 E2.36872
G1 X112.000 Y104.750 E2.38735
G1 X124.000 Y104.750 E2.73744
G1 E0.73744 F2400.00000
G92 E0
G1 Z0.800 F7200.000
G1 X134.389 Y126.500 F7200.000
G1 Z0.450 F7200.000
G1 E2.00000 F2400.00000
G1 X134.389 Y114.500 E2.35009 F3000.000
G1 X133.750 Y114.500 E2.36872
G1 X133.750 Y126.500 E2.71881
G1 X134.389 Y126.500 E2.73744
G1 E0.73744 F2400.00000
G92 E0
G1 Z0.800 F7200.000
G1 X123.696 Y126.196 F7200.000
G1 Z0.550 F7200.000
G1 E2.00000 F2400.00000
G1 X112.304 Y126.196 E2.52854 F3000.000
G1 X112.304 Y114.804 E3.05707
G1 X123.696 Y114.804 E3.58561
G1 X123.696 Y126.136 E4.11137
G1 X123.250 Y125.750 F7200.000
G1 X112.750 Y125.750 E4.59849 F3000.000
G1 X112.750 Y115.250 E5.08561
G1 X123.250 Y115.250 E5.57273
G1 X123.250 Y125.690 E6.05707
G1 X123.250 Y126.150 F7200.000
G1 E4.05707 F2400.00000
G92 E0
G1 Z0.900 F7200.000
G1 X132.304 Y134.804 F7200.000
G1 Z0.550 F7200.000
G1 E2.00000 F2400.00000
G1 X103.696 Y134.804 E3.32717 F3000.000
G1 X103.696 Y106.196 E4.65434
G1 X132.304 Y106.196 E5.98150
G1 X132.304 Y134.744 E7.30589
G1 X132.750 Y135.250 F7200.000
G1 X103.250 Y135.250 E8.67447 F3000.000
G1 X103.250 Y105.750 E10.04306
G1 X132.750 Y105.750 E11.41164
G1 X132.750 Y135.190 E12.77744
G1 X132.404 Y135.050 F7200.000
G1 X131.810 Y134.539 F7200.000
G1 X132.039 Y134.310 E12.79253 F3000.000
G1 X132.039 Y133.677 E12.82197
G1 X131.177 Y134.539 E12.87869
G1 X130.544 Y134.539 E12.90814
G1 X132.039 Y133.044 E13.00650
G1 X132.039 Y132.411 E13.03594
G1 X129.911 Y134.539 E13.17594
G1 X129.278 Y134.539 E13.20538
G1 X132.039 Y131.778 E13.38701
G1 X132.039 Y131.145 E13.41646
G1 X128.645 Y134.539 E13.63973
G1 X128.012 Y134.539 E13.66917
G1 X132.039 Y130.512 E13.93408
G1 X132.039 Y129.879 E13.96352
G1 X127.379 Y134.539 E14.27006
G1 X126.746 Y134.539 E14.29951
